build/images/step3.svg

<svg width="146" height="36" viewBox="0 0 146 36" fill="none" xmlns="http://www.w3.org/2000/svg">
<path d="M18.68 28L10.8 14.68L17.16 10.92L27.6 28H18.68ZM0.84 28V-1.90735e-06H8.72V28H0.84ZM6.44 17.28V10.88H16.6V17.28H6.44ZM17.92 14.84L10.6 14.04L19.2 -1.90735e-06H27.52L17.92 14.84ZM43.8094 28.36C41.9694 28.36 40.396 27.96 39.0894 27.16C37.7827 26.3333 36.7827 25.1067 36.0894 23.48C35.4227 21.8267 35.0894 19.72 35.0894 17.16C35.0894 14.5733 35.4094 12.4667 36.0494 10.84C36.6894 9.18667 37.6494 7.96 38.9294 7.16C40.236 6.36 41.8627 5.96 43.8094 5.96C45.7827 5.96 47.5694 6.42667 49.1694 7.36C50.796 8.26667 52.076 9.56 53.0094 11.24C53.9694 12.8933 54.4494 14.8667 54.4494 17.16C54.4494 19.4533 53.9694 21.44 53.0094 23.12C52.076 24.8 50.796 26.0933 49.1694 27C47.5694 27.9067 45.7827 28.36 43.8094 28.36ZM30.1694 35.76V6.32H37.4094V10L37.3694 17.16L37.7694 24.36V35.76H30.1694ZM42.2094 22.32C43.0627 22.32 43.8227 22.12 44.4894 21.72C45.1827 21.32 45.7294 20.7333 46.1294 19.96C46.556 19.1867 46.7694 18.2533 46.7694 17.16C46.7694 16.0667 46.556 15.1333 46.1294 14.36C45.7294 13.5867 45.1827 13 44.4894 12.6C43.8227 12.2 43.0627 12 42.2094 12C41.356 12 40.5827 12.2 39.8894 12.6C39.2227 13 38.676 13.5867 38.2494 14.36C37.8494 15.1333 37.6494 16.0667 37.6494 17.16C37.6494 18.2533 37.8494 19.1867 38.2494 19.96C38.676 20.7333 39.2227 21.32 39.8894 21.72C40.5827 22.12 41.356 22.32 42.2094 22.32ZM68.7791 28.36C66.4057 28.36 64.2991 27.88 62.4591 26.92C60.6191 25.96 59.1657 24.64 58.0991 22.96C57.0591 21.2533 56.5391 19.3067 56.5391 17.12C56.5391 14.9333 57.0591 13 58.0991 11.32C59.1657 9.64 60.6191 8.33333 62.4591 7.4C64.2991 6.44 66.4057 5.96 68.7791 5.96C71.1524 5.96 73.2591 6.44 75.0991 7.4C76.9657 8.33333 78.4191 9.64 79.4591 11.32C80.4991 13 81.0191 14.9333 81.0191 17.12C81.0191 19.3067 80.4991 21.2533 79.4591 22.96C78.4191 24.64 76.9657 25.96 75.0991 26.92C73.2591 27.88 71.1524 28.36 68.7791 28.36ZM68.7791 22.32C69.6591 22.32 70.4324 22.12 71.0991 21.72C71.7924 21.32 72.3391 20.7333 72.7391 19.96C73.1391 19.16 73.3391 18.2133 73.3391 17.12C73.3391 16.0267 73.1391 15.1067 72.7391 14.36C72.3391 13.5867 71.7924 13 71.0991 12.6C70.4324 12.2 69.6591 12 68.7791 12C67.9257 12 67.1524 12.2 66.4591 12.6C65.7924 13 65.2457 13.5867 64.8191 14.36C64.4191 15.1067 64.2191 16.0267 64.2191 17.12C64.2191 18.2133 64.4191 19.16 64.8191 19.96C65.2457 20.7333 65.7924 21.32 66.4591 21.72C67.1524 22.12 67.9257 22.32 68.7791 22.32ZM99.7834 28L93.1834 17.88L99.3034 14.28L108.743 28H99.7834ZM84.5834 28V6.32H92.1834V28H84.5834ZM89.9434 20.28V14.32H97.7834V20.28H89.9434ZM100.063 18L92.9434 17.28L100.223 6.32H108.263L100.063 18ZM129.304 28.56C127.277 28.56 125.357 28.3067 123.544 27.8C121.73 27.2667 120.144 26.4933 118.784 25.48L122.464 19.84C123.477 20.5867 124.624 21.16 125.904 21.56C127.21 21.96 128.517 22.16 129.824 22.16C130.917 22.16 131.837 22.04 132.584 21.8C133.33 21.5333 133.89 21.16 134.264 20.68C134.664 20.1733 134.864 19.5733 134.864 18.88C134.864 18.1067 134.557 17.52 133.944 17.12C133.357 16.72 132.424 16.52 131.144 16.52H127.744L128.744 11.52L137.744 3.4L138.184 6.12H123.784L125.024 -1.90735e-06H145.264L144.304 4.96L135.304 13.08L131.704 10.96H133.464C135.41 10.96 137.077 11.2667 138.464 11.88C139.877 12.4667 140.957 13.32 141.704 14.44C142.477 15.56 142.864 16.88 142.864 18.4C142.864 20.3467 142.277 22.0933 141.104 23.64C139.957 25.16 138.357 26.36 136.304 27.24C134.25 28.12 131.917 28.56 129.304 28.56Z" fill="#FFEA31"/>
</svg>

<svg width="146" height="36" fill="none" xmlns="http://www.w3.org/2000/svg"><path d="M18.68 28 10.8 14.68l6.36-3.76L27.6 28h-8.92ZM.84 28V0h7.88v28H.84Zm5.6-10.72v-6.4H16.6v6.4H6.44Zm11.48-2.44-7.32-.8L19.2 0h8.32l-9.6 14.84Zm25.89 13.52c-1.84 0-3.414-.4-4.72-1.2-1.307-.827-2.307-2.053-3-3.68-.667-1.653-1-3.76-1-6.32 0-2.587.32-4.693.96-6.32.64-1.653 1.6-2.88 2.88-3.68 1.306-.8 2.933-1.2 4.88-1.2 1.973 0 3.76.467 5.36 1.4 1.626.907 2.906 2.2 3.84 3.88.96 1.653 1.44 3.627 1.44 5.92s-.48 4.28-1.44 5.96c-.934 1.68-2.214 2.973-3.84 3.88-1.6.907-3.387 1.36-5.36 1.36Zm-13.64 7.4V6.32h7.24V10l-.04 7.16.4 7.2v11.4h-7.6Zm12.04-13.44c.853 0 1.613-.2 2.28-.6.693-.4 1.24-.987 1.64-1.76.426-.773.64-1.707.64-2.8 0-1.093-.214-2.027-.64-2.8-.4-.773-.947-1.36-1.64-1.76-.667-.4-1.427-.6-2.28-.6-.854 0-1.627.2-2.32.6-.667.4-1.214.987-1.64 1.76-.4.773-.6 1.707-.6 2.8 0 1.093.2 2.027.6 2.8.426.773.973 1.36 1.64 1.76.693.4 1.466.6 2.32.6Zm26.57 6.04c-2.374 0-4.48-.48-6.32-1.44-1.84-.96-3.294-2.28-4.36-3.96-1.04-1.707-1.56-3.653-1.56-5.84s.52-4.12 1.56-5.8c1.066-1.68 2.52-2.987 4.36-3.92 1.84-.96 3.946-1.44 6.32-1.44 2.372 0 4.48.48 6.32 1.44 1.866.933 3.32 2.24 4.36 3.92 1.04 1.68 1.56 3.613 1.56 5.8s-.52 4.133-1.56 5.84c-1.04 1.68-2.494 3-4.36 3.96-1.84.96-3.948 1.44-6.32 1.44Zm0-6.04c.88 0 1.652-.2 2.32-.6.692-.4 1.24-.987 1.64-1.76.4-.8.6-1.747.6-2.84 0-1.093-.2-2.013-.6-2.76-.4-.773-.948-1.36-1.64-1.76-.668-.4-1.44-.6-2.32-.6-.854 0-1.628.2-2.32.6-.668.4-1.214.987-1.64 1.76-.4.747-.6 1.667-.6 2.76 0 1.093.2 2.04.6 2.84.426.773.972 1.36 1.64 1.76.692.4 1.466.6 2.32.6ZM99.782 28l-6.6-10.12 6.12-3.6 9.44 13.72h-8.96Zm-15.2 0V6.32h7.6V28h-7.6Zm5.36-7.72v-5.96h7.84v5.96h-7.84Zm10.12-2.28-7.12-.72 7.28-10.96h8.04l-8.2 11.68Zm29.241 10.56c-2.027 0-3.947-.253-5.76-.76-1.814-.533-3.4-1.307-4.76-2.32l3.68-5.64a11.55 11.55 0 0 0 3.44 1.72c1.306.4 2.613.6 3.92.6 1.093 0 2.013-.12 2.76-.36.746-.267 1.306-.64 1.68-1.12.4-.507.6-1.107.6-1.8 0-.773-.307-1.36-.92-1.76-.587-.4-1.52-.6-2.8-.6h-3.4l1-5 9-8.12.44 2.72h-14.4l1.24-6.12h20.24l-.96 4.96-9 8.12-3.6-2.12h1.76c1.946 0 3.613.307 5 .92 1.413.587 2.493 1.44 3.24 2.56.773 1.12 1.16 2.44 1.16 3.96 0 1.947-.587 3.693-1.76 5.24-1.147 1.52-2.747 2.72-4.8 3.6-2.054.88-4.387 1.32-7 1.32Z" fill="#FFEA31"/></svg>
